bernoullicharts/1_1_x_even_parity__mean.svg

<?xml version="1.0" encoding="utf-8" standalone="no"?>
<!DOCTYPE svg PUBLIC "-//W3C//DTD SVG 1.1//EN"
  "http://www.w3.org/Graphics/SVG/1.1/DTD/svg11.dtd">
<!-- Created with matplotlib (https://matplotlib.org/) -->
<svg height="345.6pt" version="1.1" viewBox="0 0 460.8 345.6" width="460.8pt" xmlns="http://www.w3.org/2000/svg" xmlns:xlink="http://www.w3.org/1999/xlink">
 <defs>
  <style type="text/css">
*{stroke-linecap:butt;stroke-linejoin:round;}
  </style>
 </defs>
 <g id="figure_1">
  <g id="patch_1">
   <path d="M 0 345.6 
L 460.8 345.6 
L 460.8 0 
L 0 0 
z
" style="fill:#ffffff;"/>
  </g>
  <g id="axes_1">
   <g id="patch_2">
    <path d="M 57.6 307.584 
L 414.72 307.584 
L 414.72 41.472 
L 57.6 41.472 
z
" style="fill:#ffffff;"/>
   </g>
   <g id="matplotlib.axis_1">
    <g id="xtick_1">
     <g id="line2d_1">
      <defs>
       <path d="M 0 0 
L 0 3.5 
" id="me061fea9a3" style="stroke:#000000;stroke-width:0.8;"/>
      </defs>
      <g>
       <use style="stroke:#000000;stroke-width:0.8;" x="73.800255" xlink:href="#me061fea9a3" y="307.584"/>
      </g>
     </g>
     <g id="text_1">
      <text style="font-family:DejaVu Sans;font-size:10px;font-style:normal;font-weight:normal;text-anchor:middle;" transform="rotate(-0, 73.800255, 322.182437)" x="73.800255" y="322.182437">0.0</text>
     </g>
    </g>
    <g id="xtick_2">
     <g id="line2d_2">
      <g>
       <use style="stroke:#000000;stroke-width:0.8;" x="138.744153" xlink:href="#me061fea9a3" y="307.584"/>
      </g>
     </g>
     <g id="text_2">
      <text style="font-family:DejaVu Sans;font-size:10px;font-style:normal;font-weight:normal;text-anchor:middle;" transform="rotate(-0, 138.744153, 322.182437)" x="138.744153" y="322.182437">0.2</text>
     </g>
    </g>
    <g id="xtick_3">
     <g id="line2d_3">
      <g>
       <use style="stroke:#000000;stroke-width:0.8;" x="203.688051" xlink:href="#me061fea9a3" y="307.584"/>
      </g>
     </g>
     <g id="text_3">
      <text style="font-family:DejaVu Sans;font-size:10px;font-style:normal;font-weight:normal;text-anchor:middle;" transform="rotate(-0, 203.688051, 322.182437)" x="203.688051" y="322.182437">0.4</text>
     </g>
    </g>
    <g id="xtick_4">
     <g id="line2d_4">
      <g>
       <use style="stroke:#000000;stroke-width:0.8;" x="268.631949" xlink:href="#me061fea9a3" y="307.584"/>
      </g>
     </g>
     <g id="text_4">
      <text style="font-family:DejaVu Sans;font-size:10px;font-style:normal;font-weight:normal;text-anchor:middle;" transform="rotate(-0, 268.631949, 322.182437)" x="268.631949" y="322.182437">0.6</text>
     </g>
    </g>
    <g id="xtick_5">
     <g id="line2d_5">
      <g>
       <use style="stroke:#000000;stroke-width:0.8;" x="333.575847" xlink:href="#me061fea9a3" y="307.584"/>
      </g>
     </g>
     <g id="text_5">
      <text style="font-family:DejaVu Sans;font-size:10px;font-style:normal;font-weight:normal;text-anchor:middle;" transform="rotate(-0, 333.575847, 322.182437)" x="333.575847" y="322.182437">0.8</text>
     </g>
    </g>
    <g id="xtick_6">
     <g id="line2d_6">
      <g>
       <use style="stroke:#000000;stroke-width:0.8;" x="398.519745" xlink:href="#me061fea9a3" y="307.584"/>
      </g>
     </g>
     <g id="text_6">
      <text style="font-family:DejaVu Sans;font-size:10px;font-style:normal;font-weight:normal;text-anchor:middle;" transform="rotate(-0, 398.519745, 322.182437)" x="398.519745" y="322.182437">1.0</text>
     </g>
    </g>
    <g id="text_7">
     <text style="font-family:DejaVu Sans;font-size:10px;font-style:normal;font-weight:normal;text-anchor:middle;" transform="rotate(-0, 236.16, 335.860562)" x="236.16" y="335.860562">Input Coin's Heads Probability (λ)</text>
    </g>
   </g>
   <g id="matplotlib.axis_2">
    <g id="ytick_1">
     <g id="line2d_7">
      <defs>
       <path d="M 0 0 
L -3.5 0 
" id="m0e07812ab8" style="stroke:#000000;stroke-width:0.8;"/>
      </defs>
      <g>
       <use style="stroke:#000000;stroke-width:0.8;" x="57.6" xlink:href="#m0e07812ab8" y="284.407695"/>
      </g>
     </g>
     <g id="text_8">
      <text style="font-family:DejaVu Sans;font-size:10px;font-style:normal;font-weight:normal;text-anchor:end;" transform="rotate(-0, 50.6, 288.206913)" x="50.6" y="288.206913">0.5</text>
     </g>
    </g>
    <g id="ytick_2">
     <g id="line2d_8">
      <g>
       <use style="stroke:#000000;stroke-width:0.8;" x="57.6" xlink:href="#m0e07812ab8" y="238.239756"/>
      </g>
     </g>
     <g id="text_9">
      <text style="font-family:DejaVu Sans;font-size:10px;font-style:normal;font-weight:normal;text-anchor:end;" transform="rotate(-0, 50.6, 242.038974)" x="50.6" y="242.038974">0.6</text>
     </g>
    </g>
    <g id="ytick_3">
     <g id="line2d_9">
      <g>
       <use style="stroke:#000000;stroke-width:0.8;" x="57.6" xlink:href="#m0e07812ab8" y="192.071817"/>
      </g>
     </g>
     <g id="text_10">
      <text style="font-family:DejaVu Sans;font-size:10px;font-style:normal;font-weight:normal;text-anchor:end;" transform="rotate(-0, 50.6, 195.871036)" x="50.6" y="195.871036">0.7</text>
     </g>
    </g>
    <g id="ytick_4">
     <g id="line2d_10">
      <g>
       <use style="stroke:#000000;stroke-width:0.8;" x="57.6" xlink:href="#m0e07812ab8" y="145.903878"/>
      </g>
     </g>
     <g id="text_11">
      <text style="font-family:DejaVu Sans;font-size:10px;font-style:normal;font-weight:normal;text-anchor:end;" transform="rotate(-0, 50.6, 149.703097)" x="50.6" y="149.703097">0.8</text>
     </g>
    </g>
    <g id="ytick_5">
     <g id="line2d_11">
      <g>
       <use style="stroke:#000000;stroke-width:0.8;" x="57.6" xlink:href="#m0e07812ab8" y="99.735939"/>
      </g>
     </g>
     <g id="text_12">
      <text style="font-family:DejaVu Sans;font-size:10px;font-style:normal;font-weight:normal;text-anchor:end;" transform="rotate(-0, 50.6, 103.535158)" x="50.6" y="103.535158">0.9</text>
     </g>
    </g>
    <g id="ytick_6">
     <g id="line2d_12">
      <g>
       <use style="stroke:#000000;stroke-width:0.8;" x="57.6" xlink:href="#m0e07812ab8" y="53.568"/>
      </g>
     </g>
     <g id="text_13">
      <text style="font-family:DejaVu Sans;font-size:10px;font-style:normal;font-weight:normal;text-anchor:end;" transform="rotate(-0, 50.6, 57.367219)" x="50.6" y="57.367219">1.0</text>
     </g>
    </g>
    <g id="text_14">
     <text style="font-family:DejaVu Sans;font-size:10px;font-style:normal;font-weight:normal;text-anchor:middle;" transform="rotate(-90, 28.617187, 174.528)" x="28.617187" y="174.528">Simulated Mean / Function Value</text>
    </g>
   </g>
   <g id="line2d_13">
    <path clip-path="url(#p8fbf859c90)" d="M 73.832727 53.614163 
L 77.112066 58.229125 
L 80.391405 62.752728 
L 83.670744 67.187658 
L 86.950083 71.536498 
L 90.229421 75.801731 
L 93.50876 79.985744 
L 96.788099 84.090835 
L 100.067438 88.119218 
L 103.346777 92.073021 
L 106.626116 95.954296 
L 109.905455 99.765023 
L 113.184793 103.507106 
L 116.464132 107.182383 
L 119.743471 110.792629 
L 123.02281 114.339554 
L 126.302149 117.824808 
L 129.581488 121.249988 
L 132.860826 124.616632 
L 136.140165 127.926229 
L 139.419504 131.180217 
L 142.698843 134.379984 
L 145.978182 137.526876 
L 149.257521 140.622192 
L 152.53686 143.66719 
L 155.816198 146.663087 
L 159.095537 149.611061 
L 162.374876 152.512253 
L 165.654215 155.367767 
L 168.933554 158.178674 
L 172.212893 160.946011 
L 175.492231 163.670784 
L 178.77157 166.353966 
L 182.050909 168.996504 
L 185.330248 171.599312 
L 188.609587 174.163282 
L 191.888926 176.689275 
L 195.168264 179.178129 
L 198.447603 181.630658 
L 201.726942 184.04765 
L 205.006281 186.429873 
L 208.28562 188.778071 
L 211.564959 191.092969 
L 214.844298 193.375269 
L 218.123636 195.625655 
L 221.402975 197.844793 
L 224.682314 200.033328 
L 227.961653 202.191889 
L 231.240992 204.321088 
L 234.520331 206.42152 
L 237.799669 208.493764 
L 241.079008 210.538383 
L 244.358347 212.555926 
L 247.637686 214.546929 
L 250.917025 216.51191 
L 254.196364 218.451376 
L 257.475702 220.365822 
L 260.755041 222.255729 
L 264.03438 224.121565 
L 267.313719 225.963787 
L 270.593058 227.782841 
L 273.872397 229.579161 
L 277.151736 231.35317 
L 280.431074 233.105282 
L 283.710413 234.8359 
L 286.989752 236.545417 
L 290.269091 238.234215 
L 293.54843 239.902671 
L 296.827769 241.551148 
L 300.107107 243.180005 
L 303.386446 244.789588 
L 306.665785 246.380238 
L 309.945124 247.952288 
L 313.224463 249.506061 
L 316.503802 251.041874 
L 319.78314 252.560037 
L 323.062479 254.060853 
L 326.341818 255.544617 
L 329.621157 257.011618 
L 332.900496 258.462139 
L 336.179835 259.896455 
L 339.459174 261.314838 
L 342.738512 262.71755 
L 346.017851 264.10485 
L 349.29719 265.476991 
L 352.576529 266.834219 
L 355.855868 268.176778 
L 359.135207 269.504902 
L 362.414545 270.818824 
L 365.693884 272.118771 
L 368.973223 273.404964 
L 372.252562 274.677619 
L 375.531901 275.936951 
L 378.81124 277.183167 
L 382.090579 278.41647 
L 385.369917 279.637061 
L 388.649256 280.845136 
L 391.928595 282.040884 
L 395.207934 283.224495 
L 398.487273 284.396152 
" style="fill:none;stroke:#1f77b4;stroke-linecap:square;stroke-width:1.5;"/>
   </g>
   <g id="line2d_14">
    <path clip-path="url(#p8fbf859c90)" d="M 73.832727 53.568 
L 77.112066 62.801588 
L 80.391405 65.571664 
L 83.670744 67.418382 
L 86.950083 71.111817 
L 90.229421 85.885557 
L 93.50876 78.498687 
L 96.788099 80.345405 
L 100.067438 85.885557 
L 103.346777 84.962198 
L 106.626116 92.349069 
L 109.905455 103.429374 
L 113.184793 94.195786 
L 116.464132 111.739603 
L 119.743471 109.892885 
L 123.02281 123.743267 
L 126.302149 109.892885 
L 129.581488 131.130137 
L 132.860826 120.049832 
L 136.140165 129.28342 
L 139.419504 115.433038 
L 142.698843 131.130137 
L 145.978182 132.976855 
L 149.257521 156.060824 
L 152.53686 132.976855 
L 155.816198 129.28342 
L 159.095537 134.823573 
L 162.374876 150.520672 
L 165.654215 148.673954 
L 168.933554 152.367389 
L 172.212893 163.447695 
L 175.492231 156.060824 
L 178.77157 170.834565 
L 182.050909 163.447695 
L 185.330248 183.761588 
L 188.609587 174.528 
L 191.888926 170.834565 
L 195.168264 166.217771 
L 198.447603 177.298076 
L 201.726942 191.148458 
L 205.006281 200.382046 
L 208.28562 184.684947 
L 211.564959 178.221435 
L 214.844298 189.30174 
L 218.123636 192.071817 
L 221.402975 204.99884 
L 224.682314 197.611969 
L 227.961653 210.538992 
L 231.240992 217.925863 
L 234.520331 207.768916 
L 237.799669 208.692275 
L 241.079008 225.312733 
L 244.358347 217.002504 
L 247.637686 202.228763 
L 250.917025 214.232427 
L 254.196364 208.692275 
L 257.475702 227.15945 
L 260.755041 231.776244 
L 264.03438 209.615634 
L 267.313719 215.155786 
L 270.593058 224.389374 
L 273.872397 240.086473 
L 277.151736 240.086473 
L 280.431074 241.009832 
L 283.710413 227.15945 
L 286.989752 230.852885 
L 290.269091 247.473344 
L 293.54843 241.933191 
L 296.827769 241.933191 
L 300.107107 235.469679 
L 303.386446 247.473344 
L 306.665785 222.542656 
L 309.945124 265.01716 
L 313.224463 254.860214 
L 316.503802 251.166779 
L 319.78314 261.323725 
L 323.062479 243.779908 
L 326.341818 265.01716 
L 329.621157 258.553649 
L 332.900496 238.239756 
L 336.179835 262.247084 
L 339.459174 252.090137 
L 342.738512 261.323725 
L 346.017851 247.473344 
L 349.29719 275.174107 
L 352.576529 262.247084 
L 355.855868 276.097466 
L 359.135207 256.706931 
L 362.414545 260.400366 
L 365.693884 265.940519 
L 368.973223 262.247084 
L 372.252562 264.093802 
L 375.531901 269.633954 
L 378.81124 272.404031 
L 382.090579 295.488 
L 385.369917 283.484336 
L 388.649256 293.641282 
L 391.928595 266.863878 
L 395.207934 275.174107 
" style="fill:none;stroke:#ff7f0e;stroke-linecap:square;stroke-width:1.5;"/>
   </g>
   <g id="patch_3">
    <path d="M 57.6 307.584 
L 57.6 41.472 
" style="fill:none;stroke:#000000;stroke-linecap:square;stroke-linejoin:miter;stroke-width:0.8;"/>
   </g>
   <g id="patch_4">
    <path d="M 414.72 307.584 
L 414.72 41.472 
" style="fill:none;stroke:#000000;stroke-linecap:square;stroke-linejoin:miter;stroke-width:0.8;"/>
   </g>
   <g id="patch_5">
    <path d="M 57.6 307.584 
L 414.72 307.584 
" style="fill:none;stroke:#000000;stroke-linecap:square;stroke-linejoin:miter;stroke-width:0.8;"/>
   </g>
   <g id="patch_6">
    <path d="M 57.6 41.472 
L 414.72 41.472 
" style="fill:none;stroke:#000000;stroke-linecap:square;stroke-linejoin:miter;stroke-width:0.8;"/>
   </g>
   <g id="text_15">
    <text style="font-family:DejaVu Sans;font-size:12px;font-style:normal;font-weight:normal;" transform="translate(80.919375 22.034625)">Simulated Mean for 1/(1+x) (Even Parity) Algorithm</text>
    <text style="font-family:DejaVu Sans;font-size:12px;font-style:normal;font-weight:normal;" transform="translate(132.609375 35.472)">(Wasserstein Distances in Legend)</text>
   </g>
   <g id="legend_1">
    <g id="patch_7">
     <path d="M 229.47 78.82825 
L 407.72 78.82825 
Q 409.72 78.82825 409.72 76.82825 
L 409.72 48.472 
Q 409.72 46.472 407.72 46.472 
L 229.47 46.472 
Q 227.47 46.472 227.47 48.472 
L 227.47 76.82825 
Q 227.47 78.82825 229.47 78.82825 
z
" style="fill:#ffffff;opacity:0.8;stroke:#cccccc;stroke-linejoin:miter;"/>
    </g>
    <g id="line2d_15">
     <path d="M 231.47 54.570437 
L 251.47 54.570437 
" style="fill:none;stroke:#1f77b4;stroke-linecap:square;stroke-width:1.5;"/>
    </g>
    <g id="line2d_16"/>
    <g id="text_16">
     <text style="font-family:DejaVu Sans;font-size:10px;font-style:normal;font-weight:normal;text-anchor:start;" transform="rotate(-0, 259.47, 58.070437)" x="259.47" y="58.070437">1/(1+x)</text>
    </g>
    <g id="line2d_17">
     <path d="M 231.47 69.248562 
L 251.47 69.248562 
" style="fill:none;stroke:#ff7f0e;stroke-linecap:square;stroke-width:1.5;"/>
    </g>
    <g id="line2d_18"/>
    <g id="text_17">
     <text style="font-family:DejaVu Sans;font-size:10px;font-style:normal;font-weight:normal;text-anchor:start;" transform="rotate(-0, 259.47, 72.748562)" x="259.47" y="72.748562">Simul. Mean (WD=0.005523)</text>
    </g>
   </g>
  </g>
 </g>
 <defs>
  <clipPath id="p8fbf859c90">
   <rect height="266.112" width="357.12" x="57.6" y="41.472"/>
  </clipPath>
 </defs>
</svg>

<svg height="460.8" viewBox="0 0 460.8 345.6" width="614.4" xmlns="http://www.w3.org/2000/svg" xmlns:xlink="http://www.w3.org/1999/xlink"><defs><style>*{stroke-linecap:butt;stroke-linejoin:round}</style></defs><g id="figure_1"><path d="M0 345.6h460.8V0H0z" fill="#fff" id="patch_1"/><g id="axes_1"><path d="M57.6 307.584h357.12V41.472H57.6z" fill="#fff" id="patch_2"/><g id="matplotlib.axis_1"><g id="xtick_1"><g id="line2d_1"><defs><path d="M0 0v3.5" id="me061fea9a3" stroke="#000" stroke-width=".8"/></defs><use x="73.8" xlink:href="#me061fea9a3" y="307.584" stroke="#000" stroke-width=".8"/></g><text x="73.8" y="322.182" font-family="DejaVu Sans" font-size="10" font-weight="400" text-anchor="middle" id="text_1">0.0</text></g><g id="xtick_2"><use x="138.744" xlink:href="#me061fea9a3" y="307.584" stroke="#000" stroke-width=".8" id="line2d_2"/><text x="138.744" y="322.182" font-family="DejaVu Sans" font-size="10" font-weight="400" text-anchor="middle" id="text_2">0.2</text></g><g id="xtick_3"><use x="203.688" xlink:href="#me061fea9a3" y="307.584" stroke="#000" stroke-width=".8" id="line2d_3"/><text x="203.688" y="322.182" font-family="DejaVu Sans" font-size="10" font-weight="400" text-anchor="middle" id="text_3">0.4</text></g><g id="xtick_4"><use x="268.632" xlink:href="#me061fea9a3" y="307.584" stroke="#000" stroke-width=".8" id="line2d_4"/><text x="268.632" y="322.182" font-family="DejaVu Sans" font-size="10" font-weight="400" text-anchor="middle" id="text_4">0.6</text></g><g id="xtick_5"><use x="333.576" xlink:href="#me061fea9a3" y="307.584" stroke="#000" stroke-width=".8" id="line2d_5"/><text x="333.576" y="322.182" font-family="DejaVu Sans" font-size="10" font-weight="400" text-anchor="middle" id="text_5">0.8</text></g><g id="xtick_6"><use x="398.52" xlink:href="#me061fea9a3" y="307.584" stroke="#000" stroke-width=".8" id="line2d_6"/><text x="398.52" y="322.182" font-family="DejaVu Sans" font-size="10" font-weight="400" text-anchor="middle" id="text_6">1.0</text></g><text x="236.16" y="335.861" font-family="DejaVu Sans" font-size="10" font-weight="400" text-anchor="middle" id="text_7">Input Coin&apos;s Heads Probability (λ)</text></g><g id="matplotlib.axis_2"><g id="ytick_1"><g id="line2d_7"><defs><path d="M0 0h-3.5" id="m0e07812ab8" stroke="#000" stroke-width=".8"/></defs><use x="57.6" xlink:href="#m0e07812ab8" y="284.408" stroke="#000" stroke-width=".8"/></g><text x="50.6" y="288.207" font-family="DejaVu Sans" font-size="10" font-weight="400" text-anchor="end" id="text_8">0.5</text></g><g id="ytick_2"><use x="57.6" xlink:href="#m0e07812ab8" y="238.24" stroke="#000" stroke-width=".8" id="line2d_8"/><text x="50.6" y="242.039" font-family="DejaVu Sans" font-size="10" font-weight="400" text-anchor="end" id="text_9">0.6</text></g><g id="ytick_3"><use x="57.6" xlink:href="#m0e07812ab8" y="192.072" stroke="#000" stroke-width=".8" id="line2d_9"/><text x="50.6" y="195.871" font-family="DejaVu Sans" font-size="10" font-weight="400" text-anchor="end" id="text_10">0.7</text></g><g id="ytick_4"><use x="57.6" xlink:href="#m0e07812ab8" y="145.904" stroke="#000" stroke-width=".8" id="line2d_10"/><text x="50.6" y="149.703" font-family="DejaVu Sans" font-size="10" font-weight="400" text-anchor="end" id="text_11">0.8</text></g><g id="ytick_5"><use x="57.6" xlink:href="#m0e07812ab8" y="99.736" stroke="#000" stroke-width=".8" id="line2d_11"/><text x="50.6" y="103.535" font-family="DejaVu Sans" font-size="10" font-weight="400" text-anchor="end" id="text_12">0.9</text></g><g id="ytick_6"><use x="57.6" xlink:href="#m0e07812ab8" y="53.568" stroke="#000" stroke-width=".8" id="line2d_12"/><text x="50.6" y="57.367" font-family="DejaVu Sans" font-size="10" font-weight="400" text-anchor="end" id="text_13">1.0</text></g><text transform="rotate(-90 28.617 174.528)" x="28.617" y="174.528" font-family="DejaVu Sans" font-size="10" font-weight="400" text-anchor="middle" id="text_14">Simulated Mean / Function Value</text></g><path clip-path="url(#p8fbf859c90)" d="M73.833 53.614l3.28 4.615 3.278 4.524 3.28 4.435 3.28 4.348 3.278 4.266 3.28 4.184 3.28 4.105 3.278 4.028 3.28 3.954 3.28 3.881 3.278 3.811 3.28 3.742 3.28 3.675 3.278 3.61 3.28 3.548 3.28 3.485 3.278 3.425 3.28 3.367 3.28 3.31 3.279 3.253 3.279 3.2 3.28 3.147 3.279 3.095 3.279 3.045 3.28 2.996 3.279 2.948 3.279 2.901 3.28 2.856 3.279 2.81 3.279 2.768 3.28 2.725 3.279 2.683 3.279 2.643 3.28 2.602 3.279 2.564 3.279 2.526 3.28 2.49 3.279 2.452 3.279 2.417 3.28 2.382 3.279 2.348 3.279 2.315 3.28 2.282 3.279 2.25 3.279 2.22 3.28 2.188 3.279 2.159 3.279 2.13 3.28 2.1 3.279 2.072 3.279 2.044 3.28 2.018 3.279 1.99 3.279 1.966 3.28 1.94 3.279 1.914 3.279 1.89 3.28 1.866 3.279 1.842 3.28 1.819 3.278 1.796 3.28 1.774 3.28 1.752 3.278 1.73 3.28 1.71 3.28 1.69 3.278 1.668 3.28 1.648 3.28 1.629 3.278 1.61 3.28 1.59 3.28 1.572 3.278 1.554 3.28 1.536 3.28 1.518 3.278 1.5 3.28 1.485 3.28 1.467 3.278 1.45 3.28 1.434 3.28 1.419 3.279 1.403 3.279 1.387 3.28 1.372 3.279 1.357 3.279 1.343 3.28 1.328 3.279 1.314 3.279 1.3 3.28 1.286 3.279 1.273 3.279 1.259 3.28 1.246 3.279 1.233 3.279 1.221 3.28 1.208 3.279 1.196 3.279 1.183 3.28 1.172" fill="none" stroke="#1f77b4" stroke-linecap="square" stroke-width="1.5" id="line2d_13"/><path clip-path="url(#p8fbf859c90)" d="M73.833 53.568l3.28 9.234 3.278 2.77 3.28 1.846 3.28 3.694 3.278 14.774 3.28-7.387 3.28 1.846 3.278 5.54 3.28-.923 3.28 7.387 3.278 11.08 3.28-9.233 3.28 17.544 3.278-1.847 3.28 13.85 3.28-13.85 3.278 21.237 3.28-11.08 3.28 9.233 3.279-13.85 3.279 15.697 3.28 1.847 3.279 23.084 3.279-23.084 3.28-3.694 3.279 5.54 3.279 15.698 3.28-1.847 3.279 3.693 3.279 11.08 3.28-7.386 3.279 14.774 3.279-7.387 3.28 20.314 3.279-9.234 3.279-3.693 3.28-4.617 3.279 11.08 3.279 13.85 3.28 9.234 3.279-15.697 3.279-6.464 3.28 11.08 3.279 2.77L221.403 205l3.28-7.387 3.279 12.927 3.279 7.387 3.28-10.157 3.279.923 3.279 16.62 3.28-8.31 3.279-14.773 3.279 12.003 3.28-5.54 3.279 18.467 3.279 4.617 3.28-22.16 3.279 5.54 3.28 9.233 3.278 15.697h3.28l3.28.924 3.278-13.85 3.28 3.693 3.28 16.62 3.278-5.54h3.28l3.28-6.463 3.278 12.003 3.28-24.93 3.28 42.474 3.278-10.157 3.28-3.693 3.28 10.157 3.278-17.544 3.28 21.237 3.28-6.463 3.278-20.314 3.28 24.007 3.28-10.157 3.279 9.234 3.279-13.85 3.28 27.7 3.279-12.927 3.279 13.85 3.28-19.39 3.279 3.693 3.279 5.54 3.28-3.693 3.279 1.847 3.279 5.54 3.28 2.77 3.279 23.084 3.279-12.004 3.28 10.157 3.279-26.777 3.279 8.31" fill="none" stroke="#ff7f0e" stroke-linecap="square" stroke-width="1.5" id="line2d_14"/><path d="M57.6 307.584V41.472" fill="none" stroke="#000" stroke-linecap="square" stroke-width=".8" id="patch_3"/><path d="M414.72 307.584V41.472" fill="none" stroke="#000" stroke-linecap="square" stroke-width=".8" id="patch_4"/><path d="M57.6 307.584h357.12" fill="none" stroke="#000" stroke-linecap="square" stroke-width=".8" id="patch_5"/><path d="M57.6 41.472h357.12" fill="none" stroke="#000" stroke-linecap="square" stroke-width=".8" id="patch_6"/><g id="text_15" font-family="DejaVu Sans" font-size="12" font-weight="400"><text transform="translate(80.92 22.035)">Simulated Mean for 1/(1+x) (Even Parity) Algorithm</text><text transform="translate(132.61 35.472)">(Wasserstein Distances in Legend)</text></g><g id="legend_1"><path d="M229.47 78.828h178.25q2 0 2-2V48.472q0-2-2-2H229.47q-2 0-2 2v28.356q0 2 2 2z" fill="#fff" opacity=".8" stroke="#ccc" id="patch_7"/><path d="M231.47 54.57h20" fill="none" stroke="#1f77b4" stroke-linecap="square" stroke-width="1.5" id="line2d_15"/><text x="259.47" y="58.07" font-family="DejaVu Sans" font-size="10" font-weight="400" id="text_16">1/(1+x)</text><path d="M231.47 69.249h20" fill="none" stroke="#ff7f0e" stroke-linecap="square" stroke-width="1.5" id="line2d_17"/><text x="259.47" y="72.749" font-family="DejaVu Sans" font-size="10" font-weight="400" id="text_17">Simul. Mean (WD=0.005523)</text></g></g></g><defs><clipPath id="p8fbf859c90"><path d="M57.6 41.472h357.12v266.112H57.6z"/></clipPath></defs></svg>
